teams/dark/119.svg

<svg xmlns="http://www.w3.org/2000/svg" viewBox="0 0 300 300"><title>Los Angeles Dodgers cap on dark logo</title><path fill="#fff" d="M249.93 261.2h-1.99v5.43h-1.35v-5.43h-2v-1.18h5.34Zm7.69 5.44v-5.26h-.03l-1.91 5.26h-1.3l-1.86-5.26h-.02v5.26h-1.36v-6.61h2.34l1.54 4.32h.03l1.6-4.32h2.32v6.61Zm-47.44-104.35h24.06v48.03h-28.95c.71 2.98 7.37 30.79 7.8 32.66h17.48l.02 24.1-59.79-.11v-23.99h16.85c-.66-2.95-7.01-30.74-7.48-32.66h-41.24c-.42 1.92-6.8 29.7-7.45 32.66h16.84v23.99l-59.78.11v-24.1h17.5c.44-1.87 7.09-29.68 7.81-32.66H70.8v-22.91h17.58V55.47H71.71V32.9l57.56-.15v22.72h-17.69v130.82h8.02c.51-2.07 23.04-96.45 23.04-96.45h33.85s22.57 94.39 23.06 96.45h10.64V162.3Zm-35.5 24c-.68-3.01-13.36-58.37-15.12-65.99-1.72 7.62-14.41 62.98-15.12 65.99Z"/></svg>

<svg width="300" height="300" viewBox="0 0 300 300" fill="none" xmlns="http://www.w3.org/2000/svg">
<path d="M210.18 162.29H234.24V210.32H205.29C206 213.3 212.66 241.11 213.09 242.98H230.57L230.59 267.08L170.8 266.97V242.98H187.65C186.99 240.03 180.64 212.24 180.17 210.32H138.93C138.51 212.24 132.13 240.02 131.48 242.98H148.32V266.97L88.54 267.08V242.98H106.04C106.48 241.11 113.13 213.3 113.85 210.32H70.8V187.41H88.38V55.47H71.71V32.9L129.27 32.75V55.47H111.58V186.29H119.6C120.11 184.22 142.64 89.84 142.64 89.84H176.49C176.49 89.84 199.06 184.23 199.55 186.29H210.19V162.3L210.18 162.29ZM174.68 186.29C174 183.28 161.32 127.92 159.56 120.3C157.84 127.92 145.15 183.28 144.44 186.29H174.68Z" fill="white"/>
</svg>
